svg/fluentui-system-icons/ic_fluent_megaphone_off_20_filled.svg

<svg width="20" height="20" viewBox="0 0 20 20" fill="none" xmlns="http://www.w3.org/2000/svg">
<path d="M2.85355 2.14645C2.65829 1.95118 2.34171 1.95118 2.14645 2.14645C1.95118 2.34171 1.95118 2.65829 2.14645 2.85355L5.48059 6.18769L3.11351 6.81891C2.45688 6.99402 2 7.58869 2 8.26827V10.7792C2 11.4249 2.41315 11.9981 3.02566 12.2023L5 12.8604V13.75C5 15.5449 6.45507 17 8.25 17C9.62112 17 10.7932 16.1513 11.2709 14.9507L15.7299 16.437L17.1464 17.8536C17.3417 18.0488 17.6583 18.0488 17.8536 17.8536C18.0488 17.6583 18.0488 17.3417 17.8536 17.1464L2.85355 2.14645ZM6 13.1937L10.32 14.6337C9.97657 15.437 9.17866 16 8.25 16C7.00736 16 6 14.9926 6 13.75V13.1937ZM18 15.1126C18 15.3398 17.9506 15.5523 17.8631 15.7417L7.71357 5.59223L16.1135 3.35225C17.0658 3.09831 18 3.81605 18 4.8016V15.1126Z" fill="#212121"/>
</svg>

<svg xmlns="http://www.w3.org/2000/svg" width="20" height="20"><path d="M2.854 2.146a.5.5 0 1 0-.708.708l3.335 3.334-2.367.63A1.5 1.5 0 0 0 2 8.269v2.511a1.5 1.5 0 0 0 1.026 1.423L5 12.86v.89a3.25 3.25 0 0 0 6.27 1.2l4.46 1.487 1.416 1.417a.5.5 0 0 0 .708-.708l-15-15ZM6 13.194l4.32 1.44A2.251 2.251 0 0 1 6 13.75v-.556Zm12 1.919c0 .227-.05.44-.137.629L7.713 5.592l8.4-2.24A1.5 1.5 0 0 1 18 4.802v10.31Z"/></svg>
